X:19
T:Bishop's Palace (The)
R:hp 64
C:Ian Hay arr. P J Headford
S:Jeremy Tozer
Z:PJHeadford
M:2/4
L:1/16
Q:1/4=100
K:Am
|:ABcd ede2|def2 e4|ABcd ede2|d4 B4|\
ABcd ede2|def2 e4|ABcd edc2|B4 A4:|]
|:a4 e4|def2 e4|ABcd edc2|d4 B4|\
a4 e4|def2 e4|ABcd edc2|B4 A4:|]
K:Em
|:EFGA BAB2|cBc2 B4|EFGA BAG2|A4 F4|\
EFGA BAB2|ABc2 B4|EFGA BAG2|F4 E4:|]
|:e4 B4|ABc2 B4|EFGA BAG2|A4 F4|\
e4 B4|ABc2 B4|EFGA BAG2|F4 E4:|]

